X: 1
T: The Maids Of Ardagh
R: polka
M: 2/4
L: 1/8
K: Amix
F>A BA|de f2|fe/f/ gc|ed BA|F>A BA|de f2|fe/f/ gc|ed d2:|
ef/e/ ce|fe a2|ef/e/ ce|fe c/B/A|ef/e/ ce|fe a2|ef/e/ dB|BA A2:|


Tune 466	Setting 25370

